packages/core/src/svgs/tokens/mono/IETH.svg

<svg width="24" height="24" viewBox="0 0 24 24" fill="none" xmlns="http://www.w3.org/2000/svg">
<path d="M16.2858 2.38857V2L15.8973 2.10857C14.1258 2.6 13.0973 3.52572 12.5488 4.50857C12.1257 5.25643 11.9422 6.11604 12.023 6.97144C11.6401 6.89144 11.3373 6.81144 11.0458 6.73715C10.1872 6.48555 9.29474 6.36797 8.40015 6.38857C6.32015 6.38857 3.76015 8.41144 3.44586 13.1029C3.28586 15.4914 4.25158 17.7029 5.44586 19.3142C5.97509 20.0425 6.6041 20.6928 7.31443 21.2457C7.91443 21.7029 8.52586 22 9.0173 22C9.65515 22.0032 10.2818 21.8312 10.8288 21.5029L10.8916 21.4686C11.2916 21.2514 11.6116 21.08 12.1201 21.08C12.6458 21.08 13.1088 21.2629 13.6688 21.4857L13.7488 21.52C14.3373 21.7486 15.0058 22 15.8401 22C16.0688 22 16.2858 21.92 16.4915 21.8114C16.6973 21.6972 16.9088 21.5372 17.1145 21.3542C17.5258 20.9829 17.9601 20.4742 18.3716 19.9257C19.1392 18.8785 19.8323 17.7786 20.4458 16.6342L20.5715 16.4057L20.3601 16.2457C19.9716 15.96 19.3715 15.4114 18.8745 14.7372C18.3605 14.1025 18.0569 13.3236 18.0058 12.5086C18.0058 11.72 18.2915 10.9314 18.663 10.2514C18.9629 9.70091 19.3357 9.19345 19.7715 8.74287L19.9773 8.54287L19.7887 8.33143C18.8345 7.22857 17.9315 6.65144 17.0915 6.4C16.3534 6.19288 15.5726 6.19288 14.8345 6.4L14.2401 6.53715C14.7945 6.12572 15.2116 5.62287 15.5201 5.09715C16.0014 4.27401 16.2649 3.34183 16.2858 2.38857ZM14.9888 4.80572C14.4656 5.71904 13.6164 6.4008 12.6116 6.71429C12.5888 6.18857 12.6973 5.48 13.0801 4.79429C13.5088 4.02857 14.2915 3.26857 15.6515 2.79429C15.5945 3.37144 15.4001 4.10857 14.9888 4.80572ZM14.983 6.98287C15.6146 6.80547 16.2829 6.80547 16.9145 6.98287C17.5715 7.17715 18.3201 7.61715 19.143 8.52572C18.8401 8.86857 18.4573 9.36572 18.1316 9.95429C17.6773 10.7312 17.4239 11.6092 17.3945 12.5086C17.3945 13.4572 17.8516 14.3657 18.383 15.0914C18.8401 15.7142 19.3715 16.2342 19.7887 16.5714C19.219 17.6104 18.5815 18.6106 17.8801 19.5657C17.4801 20.0972 17.0801 20.5714 16.7087 20.9029C16.5201 21.0742 16.3487 21.1942 16.1945 21.28C16.0458 21.3657 15.9258 21.3942 15.8401 21.3942C15.1962 21.3724 14.563 21.2228 13.9773 20.9542L13.863 20.9142C13.3316 20.7029 12.7658 20.4742 12.1201 20.4742C11.4573 20.4742 11.0173 20.7142 10.6173 20.9314L10.543 20.9714C10.1316 21.1942 9.72008 21.3942 9.0173 21.3942C8.7373 21.3942 8.263 21.2 7.68015 20.7657C7.01524 20.2469 6.42662 19.6372 5.93158 18.9542C4.80015 17.4229 3.90301 15.3486 4.05158 13.1429C4.36015 8.64572 6.76015 6.99429 8.40015 6.99429C9.63448 6.99429 10.1373 7.12572 10.8345 7.30857C11.1658 7.4 11.543 7.49715 12.063 7.6L12.1201 7.61144L12.1773 7.6C12.6973 7.49715 13.983 7.22857 14.983 6.98287Z" fill="white"/>
<path d="M8.28589 13.52L11.4288 8.3772V12.0915L8.28589 13.52ZM12.0001 12.0915V8.3772L14.8573 13.52L12.0001 12.0915ZM11.4288 15.8057V12.6629L8.28589 14.0915L11.4288 15.8057ZM12.0001 15.8057V12.6629L14.8573 14.0915L12.0001 15.8057ZM12.0001 19.2343V16.6629L14.8573 14.6629L12.0001 19.2343ZM11.4288 16.6629L8.28589 14.6629L11.4288 19.2343V16.6629Z" fill="white"/>
</svg>

<svg xmlns="http://www.w3.org/2000/svg" width="24" height="24" fill="none" viewBox="0 0 24 24">
    <path fill="#fff" d="M16.286 2.389V2l-.389.109c-1.771.491-2.8 1.417-3.348 2.4a4.2 4.2 0 0 0-.526 2.462c-.383-.08-.686-.16-.977-.234A8.7 8.7 0 0 0 8.4 6.39c-2.08 0-4.64 2.022-4.954 6.714-.16 2.388.806 4.6 2 6.211a9.6 9.6 0 0 0 1.868 1.932c.6.457 1.212.754 1.703.754a3.5 3.5 0 0 0 1.812-.497l.063-.034c.4-.218.72-.389 1.228-.389.526 0 .989.183 1.549.406l.08.034c.588.229 1.257.48 2.091.48.229 0 .446-.08.651-.189a3.6 3.6 0 0 0 .624-.457c.41-.371.845-.88 1.257-1.428a28 28 0 0 0 2.074-3.292l.125-.228-.21-.16a7.6 7.6 0 0 1-1.486-1.509 3.93 3.93 0 0 1-.87-2.228c0-.789.287-1.578.658-2.258a7 7 0 0 1 1.108-1.508l.206-.2-.188-.212C18.834 7.23 17.93 6.651 17.09 6.4a4.2 4.2 0 0 0-2.257 0l-.594.137a4.8 4.8 0 0 0 1.28-1.44 5.6 5.6 0 0 0 .766-2.708m-1.297 2.417a4.17 4.17 0 0 1-2.377 1.908 3.7 3.7 0 0 1 .468-1.92c.429-.765 1.211-1.525 2.572-2a5 5 0 0 1-.663 2.012m-.006 2.177a3.57 3.57 0 0 1 1.931 0c.657.194 1.406.634 2.229 1.543a8.2 8.2 0 0 0-1.011 1.428 5.4 5.4 0 0 0-.738 2.555c0 .948.458 1.857.989 2.582a8.3 8.3 0 0 0 1.406 1.48 27 27 0 0 1-1.909 2.995c-.4.531-.8 1.005-1.171 1.337-.189.171-.36.291-.514.377a.73.73 0 0 1-.355.114 4.9 4.9 0 0 1-1.863-.44l-.114-.04c-.531-.211-1.097-.44-1.743-.44-.663 0-1.103.24-1.503.457l-.074.04c-.411.223-.823.423-1.526.423-.28 0-.754-.194-1.337-.628a9 9 0 0 1-1.748-1.812c-1.132-1.531-2.029-3.605-1.88-5.811C4.36 8.646 6.76 6.994 8.4 6.994c1.234 0 1.737.132 2.435.315.33.091.708.188 1.228.291l.057.011.057-.011c.52-.103 1.806-.371 2.806-.617"/>
    <path fill="#fff" d="m8.286 13.52 3.143-5.143v3.714zM12 12.092V8.377l2.857 5.143zm-.571 3.714v-3.143L8.286 14.09zm.571 0v-3.143l2.857 1.428zm0 3.428v-2.571l2.857-2zm-.571-2.571-3.143-2 3.143 4.571z"/>
</svg>
